austria/municipalities/70806.svg

<?xml version="1.0" encoding="UTF-8" standalone="no"?>
<svg
   xmlns:dc="http://purl.org/dc/elements/1.1/"
   xmlns:cc="http://creativecommons.org/ns#"
   xmlns:rdf="http://www.w3.org/1999/02/22-rdf-syntax-ns#"
   xmlns:svg="http://www.w3.org/2000/svg"
   xmlns="http://www.w3.org/2000/svg"
   xmlns:sodipodi="http://sodipodi.sourceforge.net/DTD/sodipodi-0.dtd"
   xmlns:inkscape="http://www.inkscape.org/namespaces/inkscape"
   width="875.02002"
   height="1000"
   viewBox="0 0 231.51573 264.58334"
   version="1.1"
   id="svg8"
   inkscape:version="1.0.1 (3bc2e813f5, 2020-09-07)"
   sodipodi:docname="AUT_Ehenbichl_COA.svg">
  <defs
     id="defs2">
    <inkscape:path-effect
       effect="spiro"
       id="path-effect1081"
       is_visible="true"
       lpeversion="1" />
    <inkscape:path-effect
       effect="spiro"
       id="path-effect1049"
       is_visible="true"
       lpeversion="1" />
    <inkscape:path-effect
       effect="spiro"
       id="path-effect1045"
       is_visible="true"
       lpeversion="1" />
    <inkscape:path-effect
       effect="spiro"
       id="path-effect1041"
       is_visible="true"
       lpeversion="1" />
    <inkscape:path-effect
       effect="spiro"
       id="path-effect999"
       is_visible="true"
       lpeversion="1" />
    <inkscape:path-effect
       effect="spiro"
       id="path-effect995"
       is_visible="true"
       lpeversion="1" />
    <inkscape:path-effect
       effect="spiro"
       id="path-effect991"
       is_visible="true"
       lpeversion="1" />
    <inkscape:path-effect
       effect="spiro"
       id="path-effect987"
       is_visible="true"
       lpeversion="1" />
    <inkscape:path-effect
       effect="spiro"
       id="path-effect926"
       is_visible="true"
       lpeversion="1" />
    <inkscape:path-effect
       effect="spiro"
       id="path-effect922"
       is_visible="true"
       lpeversion="1" />
    <inkscape:path-effect
       effect="spiro"
       id="path-effect918"
       is_visible="true"
       lpeversion="1" />
    <inkscape:path-effect
       effect="spiro"
       id="path-effect914"
       is_visible="true"
       lpeversion="1" />
    <inkscape:path-effect
       effect="spiro"
       id="path-effect910"
       is_visible="true"
       lpeversion="1" />
    <inkscape:path-effect
       effect="spiro"
       id="path-effect898"
       is_visible="true"
       lpeversion="1" />
    <inkscape:path-effect
       effect="spiro"
       id="path-effect894"
       is_visible="true"
       lpeversion="1" />
    <inkscape:path-effect
       effect="spiro"
       id="path-effect890"
       is_visible="true"
       lpeversion="1" />
    <inkscape:path-effect
       effect="spiro"
       id="path-effect886"
       is_visible="true"
       lpeversion="1" />
    <inkscape:path-effect
       effect="spiro"
       id="path-effect882"
       is_visible="true"
       lpeversion="1" />
    <mask
       maskUnits="userSpaceOnUse"
       id="mask853">
      <rect
         style="fill:#ffffff;fill-opacity:1;fill-rule:evenodd;stroke:none;stroke-width:0.761357;stroke-linecap:round;stroke-linejoin:round;paint-order:stroke fill markers"
         id="rect855"
         width="158.86002"
         height="181.55023"
         x="2.3386064"
         y="0.75861561" />
    </mask>
  </defs>
  <sodipodi:namedview
     id="base"
     pagecolor="#ffffff"
     bordercolor="#666666"
     borderopacity="1.0"
     inkscape:pageopacity="0.0"
     inkscape:pageshadow="2"
     inkscape:zoom="0.35"
     inkscape:cx="841.75892"
     inkscape:cy="723.12928"
     inkscape:document-units="mm"
     inkscape:current-layer="layer1"
     inkscape:document-rotation="0"
     showgrid="false"
     units="px"
     inkscape:window-width="1920"
     inkscape:window-height="1001"
     inkscape:window-x="-9"
     inkscape:window-y="-9"
     inkscape:window-maximized="1" />
  <metadata
     id="metadata5">
    <rdf:RDF>
      <cc:Work
         rdf:about="">
        <dc:format>image/svg+xml</dc:format>
        <dc:type
           rdf:resource="http://purl.org/dc/dcmitype/StillImage" />
        <dc:title />
      </cc:Work>
    </rdf:RDF>
  </metadata>
  <g
     inkscape:label="Ebene 1"
     inkscape:groupmode="layer"
     id="layer1">
    <path
       id="path857"
       style="fill:#fcdd09;fill-opacity:1;fill-rule:evenodd;stroke:none;stroke-width:2.64583;stroke-linecap:round;stroke-linejoin:round;stroke-miterlimit:4;stroke-dasharray:none;stroke-opacity:1;paint-order:normal"
       d="m 230.19279,148.82547 c 0,63.20067 -51.23427,114.43494 -114.43494,114.43494 -63.200665,0 -114.434935,-51.23427 -114.434935,-114.43494 L 1.322925,1.322915 H 230.19279 Z"
       sodipodi:nodetypes="cscccc" />
    <path
       id="path857-9"
       style="fill:#078930;fill-opacity:1;fill-rule:evenodd;stroke:none;stroke-width:9.99999;stroke-linecap:round;stroke-linejoin:round;stroke-miterlimit:4;stroke-dasharray:none;stroke-opacity:1;paint-order:normal"
       d="M 5 5 L 5 562.49023 C 5 801.35887 198.64111 995 437.50977 995 L 437.50977 5 L 362.77344 5 L 362.77344 110.10742 L 257.7168 110.10742 L 257.7168 5 L 195.7168 5 L 195.7168 110.10742 L 90.662109 110.10742 L 90.662109 5 L 5 5 z "
       transform="scale(0.26458333)" />
    <path
       id="path958"
       style="fill:#000000;fill-opacity:1;fill-rule:evenodd;stroke:none;stroke-width:9.99999;stroke-linecap:round;stroke-linejoin:round;stroke-miterlimit:4;stroke-dasharray:none;stroke-opacity:1;paint-order:normal"
       d="M 589.42383 27.021484 C 602.50326 41.957358 612.90251 59.232546 619.98047 77.78125 C 629.94686 103.8995 633.24505 132.15446 633.36523 160.10938 C 633.46955 184.37033 631.23185 208.69314 625.78906 232.33594 C 620.14895 256.83595 610.5725 280.22074 600.03125 303.04492 C 584.46916 336.74035 571.02719 367.71375 564.16992 401.53516 C 555.25379 445.51117 551.31299 490.51613 552.04883 535.38086 C 552.58563 568.10885 556.91784 600.68175 562.9082 632.86133 C 570.6664 674.53731 592.87855 729.56379 600.33594 747.93555 C 601.68803 751.26656 602.17574 754.90534 602.30273 758.49805 C 602.37303 760.48695 602.25713 762.56568 601.29297 764.30664 C 600.63439 765.49576 599.60789 766.45983 598.43359 767.14453 C 597.25933 767.82923 595.94137 768.24324 594.60156 768.47266 C 593.58615 768.64666 592.55407 768.7109 591.52539 768.67188 C 585.781 761.98286 577.40302 758.13449 568.58594 758.13477 C 551.88685 758.13471 538.34955 771.672 538.34961 788.37109 C 538.34955 805.07018 551.88685 818.60748 568.58594 818.60742 C 582.3789 818.6072 594.42348 809.27267 597.86523 795.91602 C 599.70947 795.63706 601.57417 795.49206 603.43945 795.49609 C 608.27094 795.50819 613.2272 796.53817 617.20312 799.2832 C 620.18604 801.34263 622.47147 804.25291 624.52734 807.23828 C 624.94171 807.84 625.33078 808.45873 625.73047 809.07031 C 618.1502 814.78273 613.69228 823.72315 613.69141 833.21484 C 613.69135 849.91393 627.22864 863.45123 643.92773 863.45117 C 660.62682 863.45123 674.16412 849.91393 674.16406 833.21484 C 674.16431 818.47211 663.53203 805.87841 648.99805 803.40625 C 648.73107 801.65638 648.48505 799.90283 648.26562 798.14648 C 648.01431 796.13366 647.79398 794.08493 648.13867 792.08594 C 648.5263 789.83799 649.62696 787.74104 651.13477 786.0293 C 652.64261 784.31759 654.54729 782.98011 656.59961 781.98438 C 657.54055 781.52786 658.51781 781.14644 659.51562 780.83398 A 30.23622 30.23622 0 0 0 681.42773 790.23633 A 30.23622 30.23622 0 0 0 711.66406 760 A 30.23622 30.23622 0 0 0 681.42773 729.76367 A 30.23622 30.23622 0 0 0 651.74023 754.26953 C 649.97016 755.31149 648.11291 756.18107 646.5625 756.35156 C 644.0589 756.62687 642.02615 754.93056 640.5625 752.94336 C 638.54519 750.20445 636.78076 746.00794 635.78516 743 C 629.5698 724.22198 619.86205 690.8107 623.01172 664.93359 C 624.05808 656.33694 625.8504 647.81463 628.82031 639.67969 C 632.16947 630.50598 636.81931 621.76334 642.96289 614.17188 C 650.29699 605.10929 659.5907 597.86034 668.97266 590.93945 C 679.94999 582.8417 691.18777 575.06177 701.55078 566.19141 C 714.4409 555.15794 725.97289 542.3957 734.63281 527.80469 C 739.20256 520.10515 742.98529 511.83765 744.73438 503.05664 C 746.42679 494.55996 746.16548 485.67936 743.97656 477.29688 C 742.57511 482.84959 740.53757 488.24239 737.91602 493.33398 C 733.41664 502.07259 727.19095 509.9108 719.73438 516.31445 C 709.99155 524.6815 698.30387 530.51293 686.27148 535.00195 C 674.36582 539.44373 662.0191 542.64637 649.52734 544.97656 C 636.69067 547.37108 623.68338 548.84974 610.63672 549.39648 C 609.63987 543.86522 609.42695 538.19404 610.00586 532.60352 C 610.986 523.13844 614.27953 513.88703 619.72852 506.08594 C 625.54158 497.76357 633.63909 491.25575 642.33008 486.00977 C 655.09392 478.30535 669.19795 473.15623 682.86328 467.19531 C 699.8721 459.77595 716.50204 450.90847 730.21484 438.40625 C 739.24285 430.17527 746.97127 420.31168 751.55273 408.98633 C 755.72118 398.68198 757.18559 387.36548 756.35156 376.28125 C 755.81117 369.09913 754.32053 361.99003 751.93164 355.19531 C 749.37415 363.80075 745.85149 372.11831 741.45117 379.94336 C 735.5514 390.43484 728.05194 400.05366 719.10156 408.10156 C 711.78682 414.67877 703.49714 420.20615 694.48047 424.13867 C 682.15868 429.51267 668.71826 431.83095 655.33594 433.10352 C 640.35903 434.52772 625.26288 434.6957 610.25781 433.60742 C 609.26278 428.50158 608.92187 423.26803 609.24805 418.07617 C 609.92439 407.31332 613.52824 396.7219 619.72852 387.89844 C 625.57578 379.57732 633.57952 372.9564 642.20508 367.56836 C 651.11513 362.00262 660.74821 357.66523 670.61523 354.05859 C 683.4439 349.36941 696.70479 345.89287 709.37891 340.80078 C 725.51753 334.31676 740.65712 325.18636 753.44727 313.40039 C 760.15986 307.21481 766.27634 300.22054 770.36719 292.06055 C 773.72568 285.36136 775.66933 277.78359 774.78711 270.3418 C 773.87394 262.63893 769.98873 255.52146 764.9375 249.63477 C 760.91193 244.94336 756.1134 240.91654 750.79492 237.76562 C 752.0758 243.55551 752.54649 249.52252 752.18555 255.44141 C 751.74739 262.62706 750.07271 269.76335 747.00781 276.27734 C 743.53318 283.66222 738.24656 290.2236 731.60352 294.96484 C 720.90416 302.60111 707.4814 305.14571 694.48047 307.08594 C 678.77536 309.42974 662.98031 311.1777 647.14258 312.32227 C 646.4507 306.75761 646.39138 301.11326 646.96484 295.53516 C 648.17233 283.78973 652.20935 272.38113 658.39258 262.32227 C 663.43103 254.12575 669.84685 246.84323 676.78516 240.17773 C 687.63928 229.75035 699.8204 220.74773 710.35742 210 C 719.74857 200.42105 727.76983 189.5008 734.10742 177.67773 C 740.34742 166.03672 744.97393 153.44063 746.78516 140.35742 C 748.23884 129.85691 747.85915 119.09278 745.53516 108.75 C 742.79787 96.567921 737.35372 85.002732 729.70898 75.130859 C 729.98678 84.725145 729.26605 94.347054 727.5625 103.79297 C 725.14685 117.18724 720.73457 130.25284 714.17773 142.17969 C 709.8411 150.06798 704.56136 157.46065 698.26758 163.89648 C 691.62842 170.68547 683.87646 176.38368 675.41406 180.69141 C 674.79906 172.56731 673.78653 164.47277 672.38281 156.44727 C 669.90027 142.25372 666.19229 128.28399 661.52344 114.65234 C 657.13854 101.84976 651.88376 89.2969 644.98242 77.65625 C 636.80957 63.870949 626.30331 51.400891 613.66797 41.542969 C 606.2223 35.733946 598.05914 30.844308 589.42383 27.021484 z "
       transform="scale(0.26458333)" />
    <path
       style="fill:none;stroke:#000000;stroke-width:2.64583333;stroke-linecap:butt;stroke-linejoin:miter;stroke-opacity:1;stroke-miterlimit:4;stroke-dasharray:none"
       d="M 115.75779,1.3229166 V 263.26041"
       id="path1079"
       inkscape:path-effect="#path-effect1081"
       inkscape:original-d="m 115.75779,1.3229166 c 2.6e-4,87.3127634 2.6e-4,174.6252634 0,261.9374934" />
    <path
       id="path857-6"
       style="fill:none;fill-opacity:1;fill-rule:evenodd;stroke:#000000;stroke-width:2.64583;stroke-linecap:round;stroke-linejoin:round;stroke-miterlimit:4;stroke-dasharray:none;stroke-opacity:1;paint-order:normal"
       d="m 230.19279,148.82547 c 0,63.20067 -51.23427,114.43494 -114.43494,114.43494 -63.200665,0 -114.434935,-51.23427 -114.434935,-114.43494 L 1.322925,1.322915 H 230.19279 Z"
       sodipodi:nodetypes="cscccc" />
  </g>
</svg>

<svg xmlns="http://www.w3.org/2000/svg" width="875.02" height="1000" viewBox="0 0 231.516 264.583"><path style="fill:#fcdd09;fill-opacity:1;fill-rule:evenodd;stroke:none;stroke-width:2.64583;stroke-linecap:round;stroke-linejoin:round;stroke-miterlimit:4;stroke-dasharray:none;stroke-opacity:1;paint-order:normal" d="M230.193 148.825c0 63.201-51.234 114.435-114.435 114.435-63.2 0-114.435-51.234-114.435-114.435V1.323h228.87z"/><path style="fill:#078930;fill-opacity:1;fill-rule:evenodd;stroke:none;stroke-width:9.99999;stroke-linecap:round;stroke-linejoin:round;stroke-miterlimit:4;stroke-dasharray:none;stroke-opacity:1;paint-order:normal" d="M5 5v557.49C5 801.36 198.641 995 437.51 995V5h-74.737v105.107H257.717V5h-62v105.107H90.662V5H5z" transform="scale(.26458)"/><path style="fill:#000;fill-opacity:1;fill-rule:evenodd;stroke:none;stroke-width:9.99999;stroke-linecap:round;stroke-linejoin:round;stroke-miterlimit:4;stroke-dasharray:none;stroke-opacity:1;paint-order:normal" d="M589.424 27.021a168.35 168.35 0 0 1 30.556 50.76c9.967 26.118 13.265 54.373 13.385 82.328.105 24.261-2.133 48.584-7.576 72.227-5.64 24.5-15.216 47.885-25.758 70.709-15.562 33.695-29.004 64.669-35.861 98.49-8.916 43.976-12.857 88.981-12.121 133.846.537 32.728 4.869 65.3 10.86 97.48 7.757 41.676 29.97 96.703 37.427 115.075 1.352 3.33 1.84 6.97 1.967 10.562.07 1.989-.046 4.068-1.01 5.809-.659 1.189-1.685 2.153-2.86 2.838-1.174.684-2.492 1.098-3.831 1.328a14.88 14.88 0 0 1-3.077.199 30.236 30.236 0 0 0-22.94-10.537c-16.698 0-30.235 13.537-30.235 30.236 0 16.7 13.537 30.236 30.236 30.236 13.793 0 25.837-9.334 29.28-22.691a36.76 36.76 0 0 1 5.573-.42c4.832.012 9.788 1.042 13.764 3.787 2.983 2.06 5.268 4.97 7.324 7.955.415.602.804 1.22 1.203 1.832a30.236 30.236 0 0 0-12.039 24.145c0 16.699 13.538 30.236 30.237 30.236 16.699 0 30.236-13.537 30.236-30.236 0-14.743-10.632-27.337-25.166-29.809-.267-1.75-.513-3.503-.732-5.26-.252-2.012-.472-4.061-.127-6.06.387-2.248 1.488-4.345 2.996-6.057 1.508-1.711 3.412-3.049 5.465-4.045.94-.456 1.918-.838 2.916-1.15a30.236 30.236 0 0 0 21.912 9.402A30.236 30.236 0 0 0 711.664 760a30.236 30.236 0 0 0-30.236-30.236 30.236 30.236 0 0 0-29.688 24.506c-1.77 1.041-3.627 1.911-5.178 2.082-2.503.275-4.536-1.421-6-3.409-2.017-2.739-3.781-6.935-4.777-9.943-6.215-18.778-15.923-52.19-12.773-78.066 1.046-8.597 2.838-17.12 5.808-25.254 3.35-9.174 8-17.917 14.143-25.508 7.334-9.063 16.628-16.312 26.01-23.233 10.977-8.097 22.215-15.877 32.578-24.748 12.89-11.033 24.422-23.795 33.082-38.386 4.57-7.7 8.352-15.967 10.101-24.748a57.74 57.74 0 0 0-.757-25.76 75.358 75.358 0 0 1-6.061 16.037c-4.5 8.739-10.725 16.577-18.182 22.98-9.742 8.368-21.43 14.199-33.463 18.688-11.905 4.442-24.252 7.644-36.744 9.975a274.952 274.952 0 0 1-38.89 4.42 59.992 59.992 0 0 1-.631-16.793c.98-9.466 4.274-18.717 9.723-26.518 5.813-8.322 13.91-14.83 22.601-20.076 12.764-7.705 26.868-12.854 40.533-18.815 17.01-7.419 33.639-16.287 47.352-28.789 9.028-8.23 16.756-18.094 21.338-29.42 4.168-10.304 5.633-21.62 4.799-32.705a82.273 82.273 0 0 0-4.42-21.086 120.684 120.684 0 0 1-10.48 24.748c-5.9 10.492-13.4 20.11-22.35 28.159-7.315 6.577-15.605 12.104-24.622 16.037-12.321 5.374-25.762 7.692-39.144 8.965a270.08 270.08 0 0 1-45.078.503 61.235 61.235 0 0 1-1.01-15.53c.676-10.764 4.28-21.355 10.48-30.179 5.848-8.32 13.852-14.942 22.477-20.33 8.91-5.565 18.543-9.903 28.41-13.51 12.829-4.689 26.09-8.165 38.764-13.257 16.139-6.484 31.278-15.615 44.068-27.4 6.713-6.186 12.83-13.18 16.92-21.34 3.359-6.7 5.302-14.277 4.42-21.72-.913-7.702-4.798-14.82-9.85-20.706a56.877 56.877 0 0 0-14.142-11.87 63.938 63.938 0 0 1 1.39 17.676c-.438 7.186-2.112 14.322-5.177 20.836-3.475 7.385-8.761 13.947-15.404 18.688-10.7 7.636-24.123 10.18-37.124 12.12a626.892 626.892 0 0 1-47.337 5.237 74.479 74.479 0 0 1-.178-16.787c1.207-11.745 5.244-23.154 11.428-33.213 5.038-8.196 11.454-15.479 18.392-22.144 10.854-10.428 23.035-19.43 33.572-30.178a142.224 142.224 0 0 0 23.75-32.322c6.24-11.641 10.867-24.237 12.678-37.32 1.454-10.501 1.074-21.265-1.25-31.608a85.869 85.869 0 0 0-15.826-33.62 138.968 138.968 0 0 1-2.146 28.663c-2.416 13.394-6.828 26.46-13.385 38.387-4.337 7.888-9.617 15.28-15.91 21.716a87.654 87.654 0 0 1-22.854 16.795 250.494 250.494 0 0 0-3.031-24.244c-2.483-14.193-6.19-28.163-10.86-41.795-4.384-12.802-9.64-25.355-16.54-36.996-8.173-13.785-18.68-26.255-31.315-36.113a115.42 115.42 0 0 0-24.244-14.522z" transform="scale(.26458)"/><path style="fill:none;stroke:#000;stroke-width:2.64583333;stroke-linecap:butt;stroke-linejoin:miter;stroke-opacity:1;stroke-miterlimit:4;stroke-dasharray:none" d="M115.758 1.323V263.26"/><path style="fill:none;fill-opacity:1;fill-rule:evenodd;stroke:#000;stroke-width:2.64583;stroke-linecap:round;stroke-linejoin:round;stroke-miterlimit:4;stroke-dasharray:none;stroke-opacity:1;paint-order:normal" d="M230.193 148.825c0 63.201-51.234 114.435-114.435 114.435-63.2 0-114.435-51.234-114.435-114.435V1.323h228.87z"/></svg>
